X:84
T:Jessica's Polka
R:polka
C:Mick Hanly
H:Composed by Mick Hanly for his newborn daughter
D:Kevin Burke: Up Close
D:Mick Hanly: As I Went over Blackwater
Z:id:hn-polka-84
M:2/4
L:1/8
K:A
ef/e/ ce|fe Bc|A>B cA|ec B2|ef/e/ ce|fe Bc|A>B cA|FA E2:|
|:F>B AF|cB A2|ef/e/ ce|ag f2|ef/e/ ce|fe Bc|A>B cA|FA E2:|
<end>
<start>
